remix/Map/taxi-fill.svg

<svg viewBox="0 0 24 24" fill="currentColor" xmlns="http://www.w3.org/2000/svg"><path d="M22 12V21C22 21.5523 21.5523 22 21 22H20C19.4477 22 19 21.5523 19 21V20H5V21C5 21.5523 4.55228 22 4 22H3C2.44772 22 2 21.5523 2 21V12L4.4805 6.21216C4.79566 5.47679 5.51874 5 6.31879 5H9V3H15V5H17.6812C18.4813 5 19.2043 5.47679 19.5195 6.21216L22 12ZM4.17594 12H19.8241L17.6812 7H6.31879L4.17594 12ZM6.5 17C7.32843 17 8 16.3284 8 15.5C8 14.6716 7.32843 14 6.5 14C5.67157 14 5 14.6716 5 15.5C5 16.3284 5.67157 17 6.5 17ZM17.5 17C18.3284 17 19 16.3284 19 15.5C19 14.6716 18.3284 14 17.5 14C16.6716 14 16 14.6716 16 15.5C16 16.3284 16.6716 17 17.5 17Z"/></svg>

<svg viewBox="0 0 24 24" xmlns="http://www.w3.org/2000/svg"><path fill="none" d="M0 0h24v24H0Z"/><path d="M22 12v9 0c0 .55-.45 1-1 1h-1v0c-.56 0-1-.45-1-1v-1H5v1 0c0 .55-.45 1-1 1H3v0c-.56 0-1-.45-1-1v-9l2.48-5.788v0c.31-.74 1.03-1.22 1.84-1.22H9v-2h6v2h2.68v0c.79 0 1.52.47 1.83 1.21l2.48 5.788ZM4.17 12h15.64l-2.15-5H6.29l-2.15 5Zm2.32 5v0c.82 0 1.5-.68 1.5-1.5 0-.83-.68-1.5-1.5-1.5v0c-.83 0-1.5.67-1.5 1.5 0 .82.67 1.5 1.5 1.5Zm11 0v0c.82 0 1.5-.68 1.5-1.5 0-.83-.68-1.5-1.5-1.5v0c-.83 0-1.5.67-1.5 1.5 0 .82.67 1.5 1.5 1.5Z"/></svg>
